!!!OTL: Graf und Nonne (Die Nonne) Ich stand auf hohem Berge,
!!!ARE: Europa, Mitteleuropa, Deutschland (BRD), Hessen, Eder, Kleinern
!!!YOR: 8, S. 77
!!    1931 aufgezeichnet
!!!SCT: Q0155X
!!!YEM: Copyright 1995, estate of Helmut Schaffrath.
**kern
*ICvox
*Ivox
*M3/4
*k[b-e-a-]
*E-:
{4e-
=1
4.g
8g
8g
8g
=2
8f
8b-
4b-}
{8.g
16f
=3
4.e-
8f
8g
8b-
=4
4.f}
{8e-
8e-
8f
=5
4b-
8.g
16b-
8.cc
16b-
=6
8b-
8a-
4f}
{8cc
8cc
=7
4.b-
8g
8a-
8f
=8
4.e-}
{8e-
8e-
8f
=9
4b-
8.g
16b-
8.cc
16b-
=10
8b-
8a-
4f}
{8cc
8cc
=11
4.b-
8g
8a-
8f
=12
4.e-
8r}
==
!!!AGN: Ballade, Standesunterschied, vergebliche Werbung, Liebe
!! Schlusspause korrigiert.
!!!ONB: ESAC (Essen Associative Code) Database: BALLADE
!!!AMT: simple triple
!!!AIN: vox
!!!EED: Helmut Schaffrath
!!!EEV: 1.0
*-
